X:1
T:Feuilles d'album
T:Guitare
T:A Madame EUGÉNIE GARCIA
T:Georges Bizet
T:Victor Hugo
T:Feuillles d'album, No.4
T:Guitare
T:OpenScore (CC0)
T:OpenScore (CC0)
T:OpenScore (CC0)
T:OpenScore (CC0)
T:OpenScore (CC0)
C:Georges Bizet
Z:Victor Hugo
Z:OpenScore (CC0)
%%score 1 { 2 | ( 3 4 ) }
L:1/8
Q:1/4=112
M:3/4
K:Eb
V:1 treble nm="Voice"
V:2 treble nm="Piano"
V:3 bass 
V:4 bass 
V:1
"^Mouvement de boléro" z6 | z6 | z6 | z6 | z6 |!f! G c2 e de | (c/d/e/d/ c/=B/c/A/ G/^F/G/=A/ | %7
w: |||||Tra, la, la, la, la,|la, _ _ _ _ _ _ _ _ _ _ _|
 _B/=A/B/c/ d4) | z e (BG) F G | E2- E z z2 | G c2 e d e | (c/d/e/d/ c/=B/c/A/ G/^F/G/=A/ | %12
w: _ _ _ _ _|Com- ment, _ di- saient–|ils, _|Tra, la, la, la, la,|la, _ _ _ _ _ _ _ _ _ _ _|
 _B/=A/B/c/ d4) | z f (dB) c F | (F>B) B2 z2 | z (^c/!p!d/) G (c/d/) G d/ z/ |!f! e3/2 f/ e B (GB | %17
w: _ _ _ _ _|A- vec * nos na-|cel- * les,|Com- * ment, di- * saient- ils,|A- vec  nos na- cel- *|
 e/f/g/f/ e/f/d/f/ e2) | z!p! (^c/d/ G)"^cresc." (c/d/) G g | =e4- e z | (f/c/!pp!=A/c/) (f3 c) | %21
w: * * * * * * * * les,|Fuir _ _ les * al- gua-|zils? *|Ra- * * * mez, _|
 (f/c/=A/c/) f2- f z | (f/g/_e/g/) (f/"^cresc."g/e/g/) (f/e/) (d/c/) | %23
w: ra- * * * mez, _|ra- * * * mez, * * * di- * saient- *|
 (B/c/d/e/ f/=e/f/a/ g/f/_e/d/ |!ff! e/f/d/e/ c4-) | c z z2 z2 |[K:Eb] z6 | z6 | z6 | z6 | %30
w: el- * * * * * * * * * * *|* * * * les.|_|||||
!p! G c2 e d e | (c/d/e/d/ c/=B/c/A/ G/^F/G/=A/ | _B/=A/B/c/ d4) | z e"^cresc." (BG) F G | %34
w: Tra, la, la, la, la,|la, _ _ _ _ _ _ _ _ _ _ _|_ _ _ _ _|Com- ment, * di- saient\-|
!f! E2- E z z2 |!p! G c2 e de | (c/d/e/d/ c/=B/c/A/ G/^F/G/=A/ | _B/=A/B/c/ d4) | %38
w: ils, _|Tra, la, la la, la,|la _ _ _ _ _ _ _ _ _ _ _|_ _ _ _ _|
 z (f d)"^cresc." B c F | (F>B)!f! B2 z2 | z!p! (^c/d/) G (c/d/) G d/ z/ |!f! e3/2 f/ e B (GB | %42
w: Ou- * bli- er que-|rel- * les,|Com- * ment, di- * saient\- ils,|Ou- bli- er que- rel- *|
 e/f/g/f/ e/f/d/f/ e2) | z!p! (^c/d/) G"^cresc." (c/d/ G) g |!mf! (=e4 e) z | %45
w: * * * * * * * * les,|Mi- * sère et _ _ pé-|rils? _|
!pp! (f/c/=A/c/) (f3 c) | (f/c/=A/c/) f2- f z | (f/g/_e/g/)"^cresc." (f/g/e/g/) (f/e/) (d/c/) | %48
w: Dor- * * * mez, _|dor- * * * mez, _|dor- * * * mez, _ _ _ di- * saient- *|
 (B/c/d/e/ f/=e/f/a/ g/f/_e/d/ |!ff! e/f/d/e/ c4-) | c z z2 z2 | z6 | z6 | z6 ||[K:C] z6 | %55
w: el- * * * * * * * * * * *|* * * * les.|_|||||
!f! G c2 e de | (c/d/e/d/ c/B/c/A/ G/^F/G/A/ | B/A/B/c/ d4) | z!p! e (BG) ^F G | E2- E z z2 | %60
w: Tra, la, la, la, la,|la, _ _ _ _ _ _ _ _ _ _ _|_ _ _ _ _|Com- ment, _ di- saient–|ils, _|
!f! G c2 e d e | (c/d/e/d/ c/B/c/A/ G/^F/G/A/ | B/A/B/c/ d4) | z!p! (^f d) B ^c ^F | (^F>B) B2 z2 | %65
w: Tra, la, la, la, la,|la, _ _ _ _ _ _ _ _ _ _ _|_ _ _ _ _|En- * chan- ter les|bel- * les,|
 z!f! (^c/d/) G (c/d/) G d/ z/ |!pp! _e3/2 =f/ e _B (GB | _e/f/g/f/ e/f/d/f/ e2) | %68
w: Com- * ment, di- * saient\- ils,|En- chan- ter les bel- *|* * * * * * * * les,|
 z!f! (^c/d/ G) (c/d/) G g | e4- e z |!pp! (f/c/A/c/) (f3 c) | (f/c/A/c/) f2- f z | %72
w: Sans _ _ phil- * tres sub-|tils?... _|Ai- * * * mez, _|ai- * * * mez, _|
 (f/g/_e/g/)"^cresc." (f/g/e/g/) (f/e/) (d/c/) | (_B/c/d/_e/ f/=e/f/_a/ g/f/_e/d/ | %74
w: ai- * * * mez, _ _ _ di- * saient\- *|el- * * * * * * * * * * *|
!ff! _e/f/d/e/ c2-) c z |] %75
w: * * * * les. _|
V:2
 [G,CE][G,CE]/[G,CE]/ [G,CE][G,CE][G,CF][G,CF] | [G,CE][G,CE]/[G,CE]/ [G,CE][G,CE][G,CF][G,CF] | %2
 [G,CE] z [B,D] z z2 | z6 | x [G,CE]/[G,CE]/"^dim." [G,CE][G,CE][G,CE][G,CE] | %5
 [G,CE][G,CE]/[G,CE]/ [G,CE][G,CE][G,CE][G,CE] | [G,CE][G,CE]/[G,CE]/ [G,CE][G,CE][G,CE][G,CE] | %7
 [G,_B,D][G,B,D]/[G,B,D]/ [G,B,D][G,B,D]"_cresc."[G,B,D][G,B,D] | %8
 [G,B,E][G,B,E]/[G,B,E]/ [G,B,E][G,B,E][A,B,D][A,B,D] | %9
 [G,B,E][G,B,E]/[G,B,E]/ [G,B,E][G,B,E][G,=B,F][G,B,F] | %10
 [G,CE]!p![G,CE]/[G,CE]/ [G,CE][G,CE][G,CE][G,CE] | [G,CE][G,CE]/[G,CE]/ [G,CE][G,CE][G,CE][G,CE] | %12
 [G,_B,D][G,B,D]/[G,B,D]/ [F,=A,D][F,A,D][F,A,D]"^cresc."[F,A,D] | %13
 [F,B,D][F,B,D]/[F,B,D]/ [F,B,D][F,B,D][F,=A,E][F,A,E] | %14
!f! [F,B,D][F,B,D]/[F,B,D]/ [F,B,D][F,B,D][^F,CD][F,CD] | [G,B,D][G,B,D] z [G,B,D] z [G,B,D] | %16
 [GBe]>[GBf][GBg][GBf][GBe][FGB] | [EG]{/a}.b.e{/a}.b.e.e' | %18
 [G=Bdg]!p![GBd] z [GBd] z"^cresc." [GBd] | [=EGc=e]>[EGce][EGce][Ece][Ece][EBce] | %20
!f! [F=Acf]!pp![GBc] [FAf]3 [Bcg] | [=Acf][GBc] [FAf]3 [_EAc] | %22
 [DBd]!<(![DBd]/[DBd]/ [DBd][DBd] [DBd]!<)! z | z2!ff! [G=Bdg] z [cegc'] z | %24
!ff! [G,CE][G,CE]/[G,CE]/ [G,CE][G,CE][G,CE][G,CE] | %25
 [G,CE][G,CE]/[G,CE]/ [G,CE][G,CE][G,CF][G,CF] | %26
[K:Eb] [G,CE][G,CE]/[G,CE]/ [G,CE][G,CE][G,CF][G,CF] | [G,CE] z [B,D] z x2 | z6 | %29
 x [G,CE]/[G,CE]/"^dim." [G,CE][G,CE][G,CE][G,CE] | %30
!pp! [G,CE][G,CE]/[G,CE]/ [G,CE][G,CE][G,CE][G,CE] | %31
 [G,CE][G,CE]/[G,CE]/ [G,CE][G,CE][G,CE][G,CE] | %32
 [G,_B,D][G,B,D]/[G,B,D]/ [G,B,D][G,B,D]"_cresc."[G,B,D][G,B,D] | %33
 [G,B,E][G,B,E]/[G,B,E]/ [G,B,E][G,B,E][A,B,D][A,B,D] | %34
!f! [G,B,E][G,B,E]/[G,B,E]/ [G,B,E][G,B,E][G,=B,F][G,B,F] | %35
!pp! [G,CE][G,CE]/[G,CE]/ [G,CE][G,CE][G,CE][G,CE] | %36
 [G,CE][G,CE]/[G,CE]/ [G,CE][G,CE][G,CE][G,CE] | %37
 [G,_B,D][G,B,D]/[G,B,D]/ [F,=A,D][F,A,D]"^cresc."[F,A,D][F,A,D] | %38
 [F,B,D][F,B,D]/[F,B,D]/ [F,B,D][F,B,D][F,=A,E][F,A,E] | %39
!f! [F,B,D][F,B,D]/[F,B,D]/ [F,B,D][F,B,D][^F,CD][F,CD] | [G,B,D]!p![G,B,D] z [G,B,D] z [G,B,D] | %41
 [GBe]>[GBf][GBg][GBf][GBe][FGB] | [EG]{/=a}.b.e{/_a}.b.e.e' | %43
 [G=Bdg]!p![GBd] z [GBd] z"^cresc." [GBd] | [=EGc=e]>[EGce][EGce][Ece][Ece][EBce] | %45
!f! [F=Acf]!pp![GBc] [FAf]3 [Bcg] | [=Acf][GBc] [FAf]3 [_EAc] | %47
 [DBd]!<(![DBd]/[DBd]/ [DBd][DBd]!<)! [DBd] z | z2 [G=Bdg] z [cegc'] z | %49
 [G,CE][G,CE]/[G,CE]/ [G,CE][G,CE][G,CE][G,CE] | [G,CE][G,CE]/[G,CE]/ [G,CE][G,CE][G,CF][G,CF] | %51
 [G,CE][G,CE]/[G,CE]/ [G,CE][G,CE][G,CF][G,CF] | [G,CE] z [B,D] z x2 | z6 || %54
[K:C] x [G,CE]/[G,CE]/ [G,CE][G,CE][G,CE][G,CE] | [G,CE][G,CE]/[G,CE]/ [G,CE][G,CE][G,CE][G,CE] | %56
 [G,CE][G,CE]/[G,CE]/ [G,CE][G,CE][G,CE][G,CE] | %57
 [G,B,D][G,B,D]/[G,B,D]/ [G,B,D][G,B,D][G,B,D][G,B,D] | %58
 [G,B,E]!pp![G,B,E]/[G,B,E]/ [G,B,E][G,B,E][A,B,^D][A,B,D] | %59
 [G,B,E][G,B,E]/[G,B,E]/"_cresc." [G,B,E][G,B,E][G,B,F][G,B,F] | %60
 [G,CE][G,CE]/[G,CE]/ [G,CE][G,CE][G,CE][G,CE] | [G,CE][G,CE]/[G,CE]/ [G,CE][G,CE][G,CE][G,CE] | %62
 [G,B,D][G,B,D]/[G,B,D]/ [G,B,D][G,B,D][G,B,D][G,B,D] | %63
 [^F,B,D]!pp![F,B,D]/[F,B,D]/ [F,B,D][F,B,D][F,^A,E][F,A,E] | %64
 [^F,B,D][F,B,D]/[F,B,D]/"_cresc." [F,B,D][F,B,D][F,=CD][F,CD] | %65
!f! [G,B,D][G,B,D] z [G,B,D] z [G,B,D] |!pp! [G_B_e]>[GB=f][GBg][GBf][GBe][FGB] | %67
 [_EG]{/a}._b._e{/a}.b.e._e' | [G=Bdg][GBd] z [GBd] z"^cresc." [GBd] | %69
 [=EGc=e]>[EGce][EGce][Ece][Ece][E_Bce] |!ff! [FAcf]!pp![G_Bc] [FAf]3 [Bcg] | %71
 [Acf][G_Bc] [FAf]3 [_EAc] | [D_Bd]!<(![DBd]/[DBd]/ [DBd][DBd] [DBd]!<)! z | %73
 z2!f! [G=Bdg] z [c_egc'] z | z2 z!ff! G/G/ [Cc] z |] %75
V:3
!ff! C,3 E, D,/E,/D,/E,/ | C,3 E, D,/E,/D,/E,/ | C,/D,/C,/D,/ B,,/C,/B,,/C,/ A,,/B,,/A,,/B,,/ | %3
 [D,G,B,] z z [E,G,B,]/[E,G,B,]/ [E,G,B,][F,G,=B,] | [E,G,C] x x4 |!p! C,C,/C,/ C,C,C,C, | %6
 C,C,/C,/ C,C,C,C, | G,,G,,/G,,/ G,,G,,G,,G,, | E,,E,,/E,,/ E,,E,,B,,B,, | %9
!f! [E,,E,-]2 E,/F,/E,/F,/ D,/E,/D,/E,/ | C,C,/C,/ C,C,C,C, | C,C,/C,/ C,C,C,C, | %12
 G,,G,,/G,,/ D,,D,,D,,D,, | B,,,B,,,/B,,,/ B,,,B,,,F,,F,, | %14
 B,,2- B,,/C,/B,,/C,/ =A,,/B,,/A,,/B,,/ | G,,!p! z G,, z G,, z | %16
!f! [E,,E,]>[E,B,][E,B,][E,B,][E,B,][E,B,] | [E,B,][B,EG]E,[B,EG]E,[B,EG] | %18
 [G,,G,] z [G,,G,] z [G,,G,] z | C,2- C,/D,/_B,,/C,/ =A,,/B,,/G,,/A,,/ | %20
!ped! [F,,C,]4 [C,C]2!ped-up! |!ped! [F,,C,]4 [F,C]2!ped-up! | %22
 [B,,F,B,][B,,F,B,]/[B,,F,B,]/ [B,,F,B,][B,,F,B,] [B,,F,B,] z | %23
 z2 [G,,=B,,D,G,] z [C,,E,,G,,C,] z | C,C,/C,/ C,C,C,C, | C,3 E, D,/E,/D,/E,/ | %26
[K:Eb] C,3 E, D,/E,/D,/E,/ | C,/D,/C,/D,/ B,,/C,/B,,/C,/ A,,/B,,/A,,/B,,/ | %28
 [D,G,B,] z z [E,G,B,]/[E,G,B,]/ [E,G,B,][F,G,=B,] | [E,G,C] x x4 | C,C,/C,/ C,C,C,C, | %31
 C,C,/C,/ C,C,C,C, | G,,G,,/G,,/ G,,G,,G,,G,, | E,,E,,/E,,/ E,,E,,B,,B,, | %34
 [E,,E,-]2 E,/F,/E,/F,/ D,/E,/D,/E,/ | C,C,/C,/ C,C,C,C, | C,C,/C,/ C,C,C,C, | %37
 G,,G,,/G,,/ D,,D,,D,,D,, | B,,,B,,,/B,,,/ B,,,B,,,F,,F,, | %39
 B,,2- B,,/C,/B,,/C,/ =A,,/B,,/A,,/B,,/ | G,, z G,, z G,, z | %41
!f! [E,,E,]>[E,B,][E,B,][E,B,][E,B,][E,B,] | [E,B,][B,EG]E,[B,EG]E,[B,EG] | %43
 [G,,G,] z [G,,G,] z [G,,G,] z | C,2- C,/D,/_B,,/C,/ =A,,/B,,/G,,/A,,/ | %45
!ped! [F,,C,]4 [C,C]2!ped-up! |!ped! [F,,C,]4 [F,C]2!ped-up! | %47
 [B,,F,B,][B,,F,B,]/[B,,F,B,]/ [B,,F,B,][B,,F,B,] [B,,F,B,] z | %48
 z2!ff! [G,,=B,,D,G,] z [C,,E,,G,,C,] z |!ff! C,C,/C,/ C,C,C,C, | C,3 E, D,/E,/D,/E,/ | %51
 C,3 E, D,/E,/D,/E,/ | C,/D,/C,/D,/ B,,/C,/B,,/C,/ A,,/B,,/A,,/B,,/ | %53
 [D,G,B,] z z [E,G,B,]/[E,G,B,]/ [E,G,B,][F,G,=B,] ||[K:C] [=E,G,C]!f! x x4 | C,C,/C,/ C,C,C,C, | %56
 C,C,/C,/ C,C,C,C, | G,,G,,/G,,/ G,,G,,G,,G,, | E,,E,,/E,,/ E,,E,,B,,B,, | %59
 [E,,E,-]2 E,/=F,/E,/F,/ =D,/E,/D,/E,/ |!f! C,C,/C,/ C,C,C,C, | C,C,/C,/ C,C,C,C, | %62
 G,,G,,/G,,/ G,,G,,G,,G,, | B,,,B,,,/B,,,/ B,,,B,,,^F,,F,, | %64
 B,,2- B,,/=C,/B,,/C,/ =A,,/B,,/A,,/B,,/ | G,, z G,, z G,, z | %66
 [_E,,_E,]>[E,_B,][E,B,][E,B,][E,B,][E,B,] | [_E,_B,][_B,EG]E,[B,EG]E,[B,EG] | %68
 [G,,G,]!f! z [G,,G,] z [G,,G,] z | C,2- C,/D,/_B,,/C,/ A,,/B,,/G,,/A,,/ | %70
!ped! [F,,C,]4 [C,C]2!ped-up! |!ped! [F,,C,]4 [F,C]2!ped-up! | %72
 [_B,,F,_B,][B,,F,B,]/[B,,F,B,]/ [B,,F,B,][B,,F,B,] [B,,F,B,] z | %73
 z2 [G,,=B,,D,G,] z [C,,_E,,G,,C,] z | z2 z G,,/G,,/ [C,,C,] z |] %75
V:4
 x6 | x6 | x2 F, x [E,A,C] x | G,,/A,,/B,,/A,,/ G,,2- G,,/F,,/E,,/D,,/ | C,,C,/C,/ C,C,C,C, | x6 | %6
 x6 | x6 | x6 | x6 | x6 | x6 | x6 | x6 | x6 | x6 | x6 | x6 | x6 | x6 | x6 | x6 | x6 | x6 | x6 | %25
 x6 |[K:Eb] x6 | x2 F, x [E,A,C] x | G,,/A,,/B,,/A,,/ G,,2- G,,/F,,/E,,/D,,/ | C,,C,/C,/ C,C,C,C, | %30
 x6 | x6 | x6 | x6 | x6 | x6 | x6 | x6 | x6 | x6 | x6 | x6 | x6 | x6 | x6 | x6 | x6 | x6 | x6 | %49
 x6 | x6 | x6 | x2 F, x [E,A,C] x | G,,/A,,/B,,/A,,/ G,,2- G,,/F,,/=E,,/D,,/ || %54
[K:C] C,,C,/C,/ C,C,C,C, | x6 | x6 | x6 | x6 | x6 | x6 | x6 | x6 | x6 | x6 | x6 | x6 | x6 | x6 | %69
 x6 | x6 | x6 | x6 | x6 | x6 |] %75

